homeworks/misha.kolosov_mwkolosov/homework_markup_5/images/svg/lifebuoy.svg

<!-- Generated by IcoMoon.io -->
<svg version="1.1" xmlns="http://www.w3.org/2000/svg" width="100" height="74" viewBox="0 0 512 512">
<title></title>
<g id="icomoon-ignore">
</g>
<path d="M256 0c-141.385 0-256 114.615-256 256s114.615 256 256 256 256-114.615 256-256-114.615-256-256-256zM160 256c0-53.020 42.98-96 96-96s96 42.98 96 96-42.98 96-96 96-96-42.98-96-96zM462.99 341.738v0l-88.71-36.745c6.259-15.092 9.72-31.638 9.72-48.993s-3.461-33.901-9.72-48.993l88.71-36.745c10.954 26.411 17.010 55.365 17.010 85.738s-6.057 59.327-17.010 85.738v0zM341.739 49.010v0 0l-36.745 88.71c-15.092-6.259-31.638-9.72-48.994-9.72s-33.901 3.461-48.993 9.72l-36.745-88.711c26.411-10.952 55.366-17.009 85.738-17.009 30.373 0 59.327 6.057 85.739 17.010zM49.010 170.262l88.711 36.745c-6.259 15.092-9.721 31.638-9.721 48.993s3.461 33.901 9.72 48.993l-88.71 36.745c-10.953-26.411-17.010-55.365-17.010-85.738s6.057-59.327 17.010-85.738zM170.262 462.99l36.745-88.71c15.092 6.259 31.638 9.72 48.993 9.72s33.901-3.461 48.993-9.72l36.745 88.71c-26.411 10.952-55.365 17.010-85.738 17.010s-59.327-6.057-85.738-17.010z" fill="#DDDDDD"></path>
</svg>

<svg xmlns="http://www.w3.org/2000/svg" width="100" height="74" viewBox="0 0 512 512"><path d="M256 0C114.615 0 0 114.615 0 256s114.615 256 256 256 256-114.615 256-256S397.385 0 256 0zm-96 256c0-53.02 42.98-96 96-96s96 42.98 96 96-42.98 96-96 96-96-42.98-96-96zm302.99 85.738l-88.71-36.745C380.539 289.901 384 273.355 384 256s-3.461-33.901-9.72-48.993l88.71-36.745C473.944 196.673 480 225.627 480 256s-6.057 59.327-17.01 85.738zM341.739 49.01l-36.745 88.71C289.902 131.461 273.356 128 256 128s-33.901 3.461-48.993 9.72l-36.745-88.711C196.673 38.057 225.628 32 256 32c30.373 0 59.327 6.057 85.739 17.01zM49.01 170.262l88.711 36.745C131.462 222.099 128 238.645 128 256s3.461 33.901 9.72 48.993l-88.71 36.745C38.057 315.327 32 286.373 32 256s6.057-59.327 17.01-85.738zM170.262 462.99l36.745-88.71C222.099 380.539 238.645 384 256 384s33.901-3.461 48.993-9.72l36.745 88.71C315.327 473.942 286.373 480 256 480s-59.327-6.057-85.738-17.01z" fill="#DDD"/></svg>
